flaticon/arrows/up-arrow-7.svg

<svg xmlns="http://www.w3.org/2000/svg" width="32" height="32" viewBox="0 0 24 24">
    <path d="M 0 0 L 0 24 L 24 24 L 24 0 Z M 23.109375 23.109375 L 0.890625 23.109375 L 0.890625 0.890625 L 23.109375 0.890625 Z M 23.109375 23.109375"/>
    <path d="M 4.757812 15.871094 L 12 8.628906 L 19.242188 15.871094 C 19.328125 15.957031 19.441406 16 19.554688 16 C 19.667969 16 19.78125 15.957031 19.871094 15.871094 C 20.042969 15.695312 20.042969 15.414062 19.871094 15.242188 L 12 7.371094 L 4.128906 15.242188 C 3.957031 15.414062 3.957031 15.695312 4.128906 15.871094 C 4.304688 16.042969 4.585938 16.042969 4.757812 15.871094 Z M 4.757812 15.871094"/>
</svg>

<svg xmlns="http://www.w3.org/2000/svg" width="32" height="32" viewBox="0 0 24 24">
    <path d="M0 0v24h24V0zm23.11 23.11H.89V.89h22.22zm0 0"/>
    <path d="M4.758 15.871L12 8.63l7.242 7.242a.44.44 0 0 0 .313.129.456.456 0 0 0 .316-.129.448.448 0 0 0 0-.629L12 7.372l-7.871 7.87a.448.448 0 0 0 0 .63.448.448 0 0 0 .629 0zm0 0"/>
</svg>
